assets/img/braze_icons/monitor-04.svg

<svg fill="none" height="24" viewBox="0 0 24 24" width="24" xmlns="http://www.w3.org/2000/svg"><path clip-rule="evenodd" d="m18.8385 2h-13.67704c-.52713-.00002-.98192-.00003-1.35649.03057-.39534.0323-.78856.10362-1.16694.29641-.56449.28762-1.02343.74656-1.31105 1.31105-.19279.37838-.26411.7716-.29641 1.16694-.030601.37457-.030586.82931-.03057 1.35645v7.67708c-.000016.5272-.000031.982.03057 1.3565.0323.3954.10362.7886.29641 1.167.28762.5645.74656 1.0234 1.31105 1.311.37838.1928.7716.2641 1.16694.2964.37455.0306.82928.0306 1.35639.0306h2.83864v3c0 .5523.44772 1 1 1h6c.5523 0 1-.4477 1-1v-3h2.8385c.5271 0 .982 0 1.3565-.0306.3954-.0323.7886-.1036 1.167-.2964.5645-.2876 1.0234-.7465 1.311-1.311.1928-.3784.2641-.7716.2964-1.167.0306-.3745.0306-.8293.0306-1.3564v-7.67716c0-.52714 0-.9819-.0306-1.35647-.0323-.39534-.1036-.78856-.2964-1.16694-.2876-.56449-.7465-1.02343-1.311-1.31105-.3784-.19279-.7716-.26411-1.167-.29641-.3745-.0306-.8293-.03059-1.3565-.03057zm-8.8385 16h4v2h-4z" fill="#801ed7" fill-rule="evenodd"/></svg>

<svg width="24" height="24" viewBox="0 0 24 24" fill="none" xmlns="http://www.w3.org/2000/svg">
<path fill-rule="evenodd" clip-rule="evenodd" d="M18.8385 2H5.16146C4.63433 1.99998 4.17954 1.99997 3.80497 2.03057C3.40963 2.06287 3.01641 2.13419 2.63803 2.32698C2.07354 2.6146 1.6146 3.07354 1.32698 3.63803C1.13419 4.01641 1.06287 4.40963 1.03057 4.80497C0.999969 5.17954 0.999984 5.63428 1 6.16142V13.8385C0.999984 14.3657 0.999969 14.8205 1.03057 15.195C1.06287 15.5904 1.13419 15.9836 1.32698 16.362C1.6146 16.9265 2.07354 17.3854 2.63803 17.673C3.01641 17.8658 3.40963 17.9371 3.80497 17.9694C4.17952 18 4.63425 18 5.16136 18H8V21C8 21.5523 8.44772 22 9 22H15C15.5523 22 16 21.5523 16 21V18H18.8385C19.3656 18 19.8205 18 20.195 17.9694C20.5904 17.9371 20.9836 17.8658 21.362 17.673C21.9265 17.3854 22.3854 16.9265 22.673 16.362C22.8658 15.9836 22.9371 15.5904 22.9694 15.195C23 14.8205 23 14.3657 23 13.8386V6.16144C23 5.6343 23 5.17954 22.9694 4.80497C22.9371 4.40963 22.8658 4.01641 22.673 3.63803C22.3854 3.07354 21.9265 2.6146 21.362 2.32698C20.9836 2.13419 20.5904 2.06287 20.195 2.03057C19.8205 1.99997 19.3657 1.99998 18.8385 2ZM10 18H14V20H10V18Z" fill="#801ED7"/>
</svg>
